X:1
T:Preis und Anbetung
T:Christian Heinrich Rinck
T:Gottfried Benedikt Funk 
T:Preis und Anbetung
T:CPDL - Creative Commons Attribution Non Commercial 3.0
T:CPDL - Creative Commons Attribution Non Commercial 3.0
T:CPDL - Creative Commons Attribution Non Commercial 3.0
T:CPDL - Creative Commons Attribution Non Commercial 3.0
C:Christian Heinrich Rinck
Z:Gottfried Benedikt Funk
Z:CPDL - Creative Commons Attribution Non Commercial 3.0
%%score [ ( 1 2 ) 3 4 ]
L:1/8
Q:1/4=120
M:4/4
K:D
V:1 treble nm="Sopran\nAlt"
V:2 treble 
V:3 treble-8 nm="Tenor"
V:4 bass nm="Bass"
V:1
"^Majestätisch"!f! D4 F2 A2 | d4 d2 d2 | e4 a4 | f4 z4 |!p!"^Soli" B4 B2 B2 | (B3 A) A2 z2 | %6
w: Preis und An-|be- tung sei|un- serm|Gott!|Preis und An-|be- * tung,|
!mf!!<(! c4 c2 c2!<)! | (d3 e) f2 f2 | e4!>(! d4 | !breath!c2!>)!!f!"^Tutti" A2 d2 f2 | %10
w: Preis und An-|be- * tung sei|un- serm|Gott, sei un- serm|
 e2 A2 d2 f2 | e4 z2!mf! d2 | (c2 d2) e2 d2 |!>(! d2 c2!>)! z2!mf! f2 | (e2 f2) g2 f2 | %15
w: Gott, sei un- serm|Gott; denn|er _ ist sehr|freund- lich, denn|er _ ist sehr|
!>(! f2 e2!>)! z4 |!f! f4 f2 f2 | d4 d2 d2 | g4!>(! f4!>)! | e6 ^e2 | f3 c c2 c2 | d4 B4 | %22
w: freund- lich.|Preis und An-|be- tung sei|un- serm|Gott! Weit|ü- ber Erd' und|Him- mel|
 e3 B B2 B2 | (c2 e2) (d2 B2) | (A4!>(! ^G4) | A4!>)! z4 |!f! D4 F2 A2 | d4 d2 d2 | e4 a4 | %29
w: ge- het sei- ne|Gnad' _ und _|Gü- *|te.|Preis und An-|be- tung sei|un- serm|
!>(! f4!>)!!p!"^Soli" d4- | d4 c2 c2 | B4 A4 | G2 G2 A3 G | (G2 F2) E2"^Tutti"!mf! A2 | f6 e2 | %35
w: Gott! Lasst|_ uns mit|Dan- ken|vor sein Ant- litz|kom- * men und|un- serm|
 d4 d2 c2 |"^cresc." B6 c2 |!f! d6 e2 | (d4!>(! ^c4) | d4!>)! z4 |"^Soli" F4 F2 F2 | B4 B2 B2 | %42
w: Gott, un- serm|Gott mit|Psal- men|jauch- *|zen!|Preis und An-|be- tung sei|
"^dim." A6 G2 | F4 z4 |!f!"^Tutti" B4 c2 c2 | d4 e2 e2 |!ff! d4 c4 |!>(! !fermata!d4!>)! z4 |] %48
w: un- serm|Gott!|Preis und An-|be- tung sei|un- serm|Gott!|
V:2
 D4 F2 A2 | F4 F2 F2 | A4 A4 | A4 x4 | G4 G2 G2 | (G3 F) F2 x2 | A4 A2 A2 | (A3 G) F2 A2 | B4 B4 | %9
w: |||||||||
 A2 A2 A2 A2 | A2 A2 A2 A2 | A2 A2 A4- | A4 A2 A2 | A2 A2 x2 A2 | A4 A2 A2 | A2 A2 x4 | A4 A2 A2 | %17
w: ||* denn er|_ _ _|||||
 B4 B2 A2 | (G2 A2) (A2 B2) | c4!f! B4 | ^A3 F F2 F2 | F4 F4 | E3 E E2 E2 | (E2 =G2) F4 | E8 | %25
w: ||* Weit||||||
 E4 x4 | D4 F2 A2 | F4 F2 F2 | B4 A4 | A4 z4 | F4 E2 E2 | (D3 E) F4 | E2 E2 E3 E | D4 C2 A2 | %34
w: |||||Lasst * *||||
 A6 ^A2 | F4 F2 F2 | (G2 A2 G2) G2 | (F2 A2) (B2 G2) | (F4 E4) | F4 x4 | D4 D2 D2 | D4 D2 D2 | %42
w: |||Psal- * men _|_ _||||
 D4 C4 | D4 x4 | D4 F2 F2 | F4 G2 G2 | F4 E4 | F4 x4 |] %48
w: un- serm|_|||||
V:3
!f! D4 F2 A2 | d4 d2 d2 | d4 c4 | d4 z4 |!p! G4 B2 c2 | d4 d2 z2 |!mf! e4 e2 e2 | (d3 c) d2 d2 | %8
w: Preis und An-|be- tung sei|un- serm|Gott!|Preis und An-|be- tung,|Preis und An-|be- * tung sei|
 B4 e4 | !breath!e2!f! c2 d2 d2 | c2 c2 d2 d2 | c4 z2!mf! f2 | (e2 f2) g2 f2 | f2 e2 z2!mf! d2 | %14
w: un- serm|Gott, sei un- serm|Gott, sei un- serm|Gott; denn|er _ ist sehr|freund- lich, denn|
 (c2 d2) e2 d2 | d2 c2 z4 |!f! d4 d2 d2 | d4 d2 A2 | (B2 c2) d4 | c4!f! c4 | c3 c c2 c2 | B4 d4 | %22
w: er _ ist sehr|freund- lich.|Preis und An-|be- tung sei|un- * serm|Gott! Weit|ü- ber Erd' und|Him- mel|
 B3 B B2 B2 | (A2 ^A2) (B2 d2) | (c4 B4) | c4 z4 |!f! D4 F2 A2 | d4 d2 d2 | d4 c4 | d4 z4 | %30
w: ge- het sei- ne|Gnad' _ und _|Gü- *|te.|Preis und An-|be- tung sei|un- serm|Gott!|
!p! B4 ^A2 A2 | (B3 c) d4 | B2 _B2 A3 A | A4 A2 z2 | z2!mf! D2 d2 c2 | B4 B2 c2 | (d2 ^d2 e2) e2 | %37
w: Lasst uns mit|Dan- * ken|vor sein Ant- litz|kom- men|und un- serm|Gott, un- serm|Gott _ _ mit|
!f! (=d2 =c2) B4 | A8 | A4 z4 | A4 A2 A2 | G4 G2 G2 | F4 (E2 A2) | A4 z4 |!f! B4 ^A2 A2 | %45
w: Psal- * men|jauch-|zen!|Preis und An-|be- tung sei|un- serm _|Gott!|Preis und An-|
 B4 B2 B2 |!ff! =A4 A4 | !fermata!A4 z4 |] %48
w: be- tung sei|un- serm|Gott!|
V:4
!f! D,4 F,2 A,2 | D4 D,2 D,2 | A,4 A,,4 | D,4 z4 | z8 | z8 |!mf! G,4 G,2 G,2 | (F,3 E,) D,2 F,2 | %8
w: ||||||||
 G,4 ^G,4 | !breath!A,2!f! A,=G, F,2 D,2 | A,2 A,G, F,2 D,2 | A,4 z4 | z4 z2!mf! D,2 | %13
w: ||||denn|
 A,2 A,A, A,4- | A,4 A,2 A,2 | A,2 A,2 z4 |!f! D,4 D,2 D,2 | G,4 G,2 F,2 | E,4 (F,2 ^G,2) | %19
w: er ist sehr freund-|* lich, *|||||
 A,4!f! =G,4 | F,3 ^A, A,2 A,2 | B,4 B,4 | ^G,3 G, G,2 G,2 | (A,2 C,2) D,4 | E,8 | A,4 z4 | %26
w: |||||||
!f! D,4 F,2 A,2 | D4 B,2 B,2 | G,4 A,4 | D,4 z4 |!p! B,4 F,2 F,2 | G,4 D,4 | E,2 D,2 C,3 C, | %33
w: |||||||
 D,4 A,,2 z2 | z8 | z2!mf! B,,2 B,2 =A,2 | (G,2 F,2 E,2) A,2 |!f! (D,2 F,2) (G,2 E,2) | %38
w: ||und un- serm|||
 (A,4 A,,4) | D,4 z4 | D,4 D,2 D,2 | G,,4 G,,2 G,,2 | A,,4 A,,4 | D,4 z4 |!f! G,4 F,2 F,2 | %45
w: |||||||
 B,4 G,2 E,2 |!ff! =A,4 A,,4 | !fermata!D,4 z4 |] %48
w: |||

